X:16
T:Dunphy's Hornpipe
M:C|
S:Darcie's TrTuneSbk Vo.2 (1998) p. 16
R:hornpipe
D:ddy Keenan
D:
Z:Ed Wosika
K:G
(3DEF| "G"GDBD GBdg| "Emin"fee^d "Amin"ecAG| "D"F2 DE FGAc|
"G"(3BAG "D"AF "C"GF"D"ED| "G"GDBD GBdg|
"Emin"fee^d "Amin"ecAG| "D"FAdB cADF| AGGF G2:|
|: Bc| ("G"~d2 Bd gdBd| ~g2 af gdBd| ~g2 fg "Emin"ed^cd| "A"eAB^c "D"d2 ef|
"G"gedc BdGd| "Amin"ecAG "D"FADA| "G"GBdB "D"cADF| AGGF "G"G2:|
